X:1
T:James Gibb editions
T:Eram quasi agnus innocens - Ingegneri
T:#
%%score [ 1 2 3 4 ]
L:1/8
Q:1/4=96
M:4/4
K:C
V:1 treble nm="Soprano" snm="S"
V:2 treble nm="Alto" snm="A"
V:3 treble-8 nm="Tenor" snm="T"
V:4 bass nm="Bass" snm="B"
V:1
"^Marco Antonio Ingegneri\n(1547-92)" E4 E2 E2- |"^Eram quasi agnus innocens" E2 E2 F4 | F4 F4- | %3
w: E- ram qua\-|* si a-|gnus in\-|
 F2 E2 E2 G2- | G2 G2 G2 G2 |[M:4/4] A6 E2 | A4 G2 G2 | A6 A2 | G4 G4 | z2 E2 E2 E2 | E2 E2 F4 | %11
w: * no- cens: du\-|* ctus sum ad|im- mo-|lan- dum, et|ne- sci-|e- bam:|con- si- li-|um fe- ce-|
 E2 G2 F4 | E4 A4- | A2 E2 G4 | G8 ||S G4 G4- | G4 G2 G2 | G2 G2 E4 | G4 G4 | F2 E2 F4 | %20
w: runt ad- ver-|sum me,|* di- cen-|tes:|Ve- ni\-|* te, mit-|ta- mus li-|gnum in|pa- nem e-|
 E2 E2 E2 E2 | E2 E2 D4 | E2 E2 F4 | E4 E4 | D6 D2 | D8!fine! ||"^Versus" E4 E2 E2- | E2 D2 E2 G2 | %28
w: jus, et e- ra-|da- mus e-|um de ter-|ra vi-|ven- ti-|um.|O- mnes i\-|* ni- mi- ci|
 A4 B2 c2 | A2 B2 c2 G2- | G2 A2 G4 | A2 G4 G2 | A8 | B8!D.S.! |] %34
w: me- i ad-|ver- sum me co\-|* gi- ta-|bant ma- la|mi-|hi.|
V:2
 C4 C2 C2- | C2 C2 C4 | D4 C4- | C2 C2 C2 E2- | E2 D2 D2 D2 |[M:4/4] F2 F2 E4 | E4 z2 D2 | F6 F2 | %8
w: E- ram qua\-|* si a-|gnus in\-|* no- cens: du\-|* ctus sum ad|im- mo- lan-|dum, et|ne- sci-|
 D4 E4 | z2 C2 C2 C2 | C2 C2 C4 | C2 E2 D4 | B,2 C4 F2 | (E2 DC D4) | E8 || D4 D4- | D4 E2 E2 | %17
w: e- bam:|con- si- li-|um fe- ce-|runt ad- ver-|sum me, di-|cen\- * * *|tes:|Ve- ni\-|* te, mit-|
 D2 E2 C4 | D4 E4 | C2 C2 A,4 | C2 C2 C2 C2 | B,2 C2 A,4 | C2 C2 C4 | C4 C4 | A,6 A,2 | B,8 || %26
w: ta- mus li-|gnum in|pa- nem e-|jus, et e- ra-|da- mus e-|um de ter-|ra vi-|ven- ti-|um.|
 G4 G2 G2- | G2 G2 G2 G2 | ^F4 G2 G2 | ^F2 G2 E2 E2- | E2 F2 E4 | F2 E2 E2 (G2- | G2 ^FE) F4 | %33
w: O- mnes i\-|* ni- mi- ci|me- i ad-|ver- sum me co\-|* gi- ta-|bant ma- la mi\-||
 G8 |] %34
w: hi.|
V:3
 G4 G2 G2- | G2 G2 A4 | A4 A4- | A2 G2 G2 c2- | c2 B2 B2 B2 |[M:4/4][K:treble-8] c2 c2 c4 | %6
w: E- ram qua\-|* si a-|gnus in\-|* no- cens: du\-|* ctus sum ad|im- mo- lan-|
 c2 c2 B4 | c2 (d2- dc c2- | c2 B2) c4 | z2 G2 G2 G2 | G2 G2 A4 | G2 c2 A4 | G4 c2 d2- | %13
w: dum, et ne-|sci- e\- * * *|* * bam:|con- si- li-|um fe- ce-|runt ad- ver-|sum me, di\-|
 d2 (c4 B2) | c8 || B4 B4- | B4 c2 c2 | B2 c2 (c2 BA | B4) c2 c2 | A2 G2 F4 | G2 A2 A2 A2 | %21
w: * cen\- *|tes:|Ve- ni\-|* te, mit-|ta- mus li\- * *|* gnum in|pa- nem e-|jus, et e- ra-|
 G2 E2 F4 | G2 G2 A4 | G8 | ^F2 G4 !courtesy!^F2 | G8 || c4 c2 c2- | c2 B2 c2 e2 | d4 G2 c2 | %29
w: da- mus e-|um de ter-|ra|vi- ven- ti-|um.|O- mnes i\-|* ni- mi- ci|me- i ad-|
 d2 G2 c2 c2- | c2 F2 c4 | F2 c4 e2 | d8 | G8 |] %34
w: ver- sum me co\-|* gi- ta-|bant ma- la|mi-|hi.|
V:4
 C,4 C,2 C,2- | C,2 C,2 F,4 | D,4 F,4- | F,2 C,2 C,4 | G,6 G,2 |[M:4/4] F,2 F,2 A,2 A,2 | %6
w: E- ram qua\-|* si a-|gnus in\-|* no- cens:|du- ctus|sum ad im- mo-|
 A,4 E,2 G,2 | F,6 F,2 | G,4 C,4 | z2 C,2 C,2 C,2 | C,2 C,2 F,4 | C,2 C,2 D,4 | E,4 F,4 | A,4 G,4 | %14
w: lan- dum, et|ne- sci-|e- bam:|con- si- li-|um fe- ce-|runt ad- ver-|sum me,|di- cen-|
 C,8 || G,4 G,4- | G,4 C,2 C,2 | G,2 E,2 A,4 | G,4 C,4 | F,2 C,2 D,4 | C,2 A,,2 A,,2 A,,2 | %21
w: tes:|Ve- ni\-|* te, mit-|ta- mus li-|gnum in|pa- nem e-|jus, et e- ra-|
 E,2 A,,2 D,4 | C,2 C,2 F,4 | C,4 C,4 | D,6 D,2 | G,,8 || z8 | z8 |[M:4/4] z8 | z8 | z8 | z8 | z8 | %33
w: da- mus e-|um de ter-|ra vi-|ven- ti-|um.||||||||
 z8 |] %34
w: |

